;FLAVOR:Marlin
;TIME:4030
;Filament used: 17.4295m
;Layer height: 0.32
;MINX:71.685
;MINY:71.685
;MINZ:0.28
;MAXX:178.315
;MAXY:178.315
;MAXZ:32.34
;TARGET_MACHINE.NAME:VORON2 250
;Generated with Cura_SteamEngine 5.6.0
M140 S75
M105
M190 S75
M104 S235
M105
M109 S235
M82 ;absolute extrusion mode
START_PRINT
G92 E0
G92 E0
G1 F1800 E-1
;LAYER_COUNT:93
;LAYER:0
M107
M204 S1000
G1 F600 Z0.68
G0 F9000 X74.839 Y75.169 Z0.68
;TYPE:SKIRT
G1 F600 Z0.28
G1 F720 E0
G1 F1800 X75.213 Y74.798 E0.03729
G1 X75.423 Y74.606 E0.05742
G1 X76.143 Y74.005 E0.1238
G1 X76.489 Y73.753 E0.1541
G1 X77.336 Y73.214 E0.22516
G1 X77.699 Y73.014 E0.25449
G1 X78.64 Y72.569 E0.32817
G1 X78.924 Y72.45 E0.34996
G1 X79.353 Y72.294 E0.38227
G1 X79.63 Y72.207 E0.40282
G1 X80.434 Y71.992 E0.46172
G1 X80.718 Y71.929 E0.48231
G1 X81.567 Y71.78 E0.54332
G1 X81.997 Y71.733 E0.57394
G1 X83.181 Y71.685 E0.65781
G1 X101.485 Y71.685 E1.95332
G1 X102.656 Y71.733 E2.03627
G1 X103.002 Y71.767 E2.06088
G1 X103.582 Y71.855 E2.1024
G1 X104.051 Y71.939 E2.13612
G1 X104.671 Y72.089 E2.18127
G1 X105.125 Y72.224 E2.21479
G1 X105.817 Y72.472 E2.26682
G1 X106.08 Y72.581 E2.28697
G1 X106.765 Y72.901 E2.34048
G1 X107.019 Y73.033 E2.36074
G1 X107.742 Y73.45 E2.41981
G1 X107.977 Y73.6 E2.43955
G1 X108.346 Y73.858 E2.47141
G1 X108.762 Y74.175 E2.50843
G1 X109.032 Y74.399 E2.53326
G1 X109.555 Y74.87 E2.58308
G1 X110.05 Y75.354 E2.63208
G1 X174.636 Y139.94 E9.09679
G1 X175.372 Y140.708 E9.17207
G1 X175.73 Y141.121 E9.21076
G1 X176.128 Y141.635 E9.25677
G1 X176.415 Y142.048 E9.29237
G1 X176.565 Y142.284 E9.31216
G1 X176.966 Y142.979 E9.36895
G1 X177.1 Y143.236 E9.38946
G1 X177.427 Y143.938 E9.44428
G1 X177.535 Y144.199 E9.46427
G1 X177.704 Y144.661 E9.49909
G1 X177.794 Y144.947 E9.52031
G1 X178.008 Y145.75 E9.57912
G1 X178.069 Y146.025 E9.59906
G1 X178.219 Y146.871 E9.65987
G1 X178.267 Y147.309 E9.69106
G1 X178.315 Y148.502 E9.77557
G1 X178.312 Y166.954 E11.08155
G1 X178.268 Y167.987 E11.15473
G1 X178.222 Y168.414 E11.18513
G1 X178.053 Y169.388 E11.2551
G1 X177.998 Y169.643 E11.27356
G1 X177.874 Y170.118 E11.30831
G1 X177.714 Y170.626 E11.346
G1 X177.542 Y171.095 E11.38136
G1 X177.435 Y171.352 E11.40106
G1 X177.04 Y172.201 E11.46734
G1 X176.838 Y172.572 E11.49724
G1 X176.244 Y173.514 E11.57606
G1 X175.98 Y173.876 E11.60777
G1 X175.367 Y174.607 E11.67529
G1 X175.161 Y174.831 E11.69683
G1 X174.787 Y175.202 E11.73412
G1 X174.577 Y175.393 E11.75421
G1 X173.856 Y175.995 E11.82069
G1 X173.508 Y176.249 E11.85118
G1 X172.661 Y176.787 E11.9222
G1 X172.302 Y176.986 E11.95125
G1 X171.362 Y177.431 E12.02486
G1 X171.076 Y177.55 E12.04679
G1 X170.647 Y177.706 E12.07909
G1 X170.37 Y177.793 E12.09964
G1 X169.566 Y178.008 E12.15855
G1 X169.282 Y178.071 E12.17914
G1 X168.433 Y178.22 E12.24015
G1 X168.003 Y178.267 E12.27076
G1 X166.819 Y178.315 E12.35463
G1 X83.04 Y178.312 E18.28431
G1 X82.098 Y178.272 E18.35104
G1 X81.469 Y178.207 E18.39579
G1 X80.789 Y178.093 E18.44459
G1 X80.325 Y177.991 E18.47822
G1 X79.882 Y177.874 E18.51065
G1 X79.555 Y177.775 E18.53483
G1 X78.893 Y177.537 E18.58462
G1 X78.635 Y177.43 E18.60439
G1 X77.792 Y177.037 E18.67022
G1 X77.425 Y176.837 E18.6998
G1 X76.489 Y176.247 E18.77811
G1 X76.125 Y175.981 E18.81002
G1 X75.391 Y175.365 E18.87784
G1 X75.168 Y175.16 E18.89928
G1 X74.797 Y174.786 E18.93657
G1 X74.605 Y174.576 E18.95671
G1 X74.039 Y173.898 E19.01922
G1 X73.797 Y173.569 E19.04813
G1 X73.195 Y172.635 E19.12677
G1 X72.975 Y172.235 E19.15908
G1 X72.559 Y171.34 E19.22894
G1 X72.448 Y171.071 E19.24954
G1 X72.288 Y170.629 E19.28281
G1 X72.202 Y170.353 E19.30327
G1 X71.991 Y169.56 E19.36135
G1 X71.929 Y169.281 E19.38157
G1 X71.78 Y168.434 E19.44244
G1 X71.733 Y168.002 E19.4732
G1 X71.685 Y166.813 E19.55742
G1 X71.688 Y83.038 E25.48681
G1 X71.732 Y82.009 E25.55971
G1 X71.778 Y81.582 E25.59011
G1 X71.947 Y80.611 E25.65987
G1 X72.002 Y80.357 E25.67826
G1 X72.128 Y79.878 E25.71332
G1 X72.293 Y79.354 E25.7522
G1 X72.464 Y78.89 E25.7872
G1 X72.57 Y78.636 E25.80668
G1 X72.961 Y77.797 E25.87219
G1 X73.161 Y77.43 E25.90177
G1 X73.753 Y76.49 E25.9804
G1 X74.019 Y76.125 E26.01237
G1 X74.6 Y75.433 E26.07632
G0 F1620 X74.634 Y75.392
G0 X74.839 Y75.169
G1 F1800 E25.07632
G1 F600 Z0.68
G0 F9000 X106.912 Y136.321 Z0.68
G1 F600 Z0.28
G1 F720 E26.07632
G1 F1800 X107.238 Y136.074 E26.10527
G1 X107.686 Y135.799 E26.14247
G1 X107.971 Y135.648 E26.1653
G1 X108.247 Y135.534 E26.18644
G1 X108.625 Y135.402 E26.21477
G1 X109.034 Y135.3 E26.24461
G1 X109.282 Y135.256 E26.26244
G1 X109.617 Y135.218 E26.2863
G1 X110 Y135.199 E26.31344
G1 X110.543 Y135.234 E26.35195
G1 X111 Y135.307 E26.38471
G1 X111.336 Y135.393 E26.40925
G1 X111.782 Y135.545 E26.4426
G1 X112.092 Y135.683 E26.46662
G1 X112.331 Y135.806 E26.48565
G1 X112.647 Y135.999 E26.51185
G1 X112.925 Y136.193 E26.53585
G1 X113.306 Y136.524 E26.57157
G1 X113.47 Y136.686 E26.58788
G1 X113.727 Y136.98 E26.61552
G1 X113.936 Y137.252 E26.6398
G1 X114.113 Y137.53 E26.66313
G1 X114.354 Y137.976 E26.69901
G1 X114.511 Y138.359 E26.7283
G1 X114.655 Y138.838 E26.7637
G1 X114.74 Y139.26 E26.79417
G1 X114.786 Y139.658 E26.82253
G1 X114.797 Y139.928 E26.84166
G1 X114.792 Y140.187 E26.85999
G1 X114.768 Y140.529 E26.88426
G1 X114.689 Y141.038 E26.92071
G1 X114.553 Y141.511 E26.95555
G1 X114.436 Y141.835 E26.97993
G1 X114.256 Y142.221 E27.01007
G1 X114.008 Y142.639 E27.04447
G1 X113.732 Y143.014 E27.07743
G1 X113.552 Y143.23 E27.09733
G1 X113.248 Y143.535 E27.12781
G1 X112.92 Y143.811 E27.15815
G1 X112.579 Y144.05 E27.18762
G1 X112.226 Y144.254 E27.21648
G1 X111.842 Y144.434 E27.24649
G1 X111.547 Y144.54 E27.26868
G1 X111.132 Y144.663 E27.29932
G1 X110.735 Y144.741 E27.32795
G1 X110.413 Y144.783 E27.35094
G1 X110.004 Y144.802 E27.37991
G1 X109.598 Y144.78 E27.40869
G1 X109.289 Y144.744 E27.43071
G1 X109.033 Y144.7 E27.4491
G1 X108.562 Y144.58 E27.4835
G1 X108.162 Y144.435 E27.51361
G1 X107.701 Y144.212 E27.54986
G1 X107.427 Y144.054 E27.57224
G1 X107.086 Y143.814 E27.60176
G1 X106.757 Y143.54 E27.63206
G1 X106.462 Y143.244 E27.66164
G1 X106.132 Y142.838 E27.69867
G1 X105.89 Y142.476 E27.72949
G1 X105.649 Y142.03 E27.76537
G1 X105.419 Y141.439 E27.81025
G1 X105.345 Y141.164 E27.83041
G1 X105.259 Y140.725 E27.86207
G1 X105.212 Y140.302 E27.89219
G1 X105.203 Y139.943 E27.91761
G1 X105.215 Y139.65 E27.93837
G1 X105.242 Y139.367 E27.95849
G1 X105.298 Y139.043 E27.98176
G1 X105.416 Y138.576 E28.01585
G1 X105.562 Y138.168 E28.04652
G1 X105.742 Y137.777 E28.07699
G1 X105.942 Y137.435 E28.10503
G1 X106.189 Y137.081 E28.13558
G1 X106.512 Y136.706 E28.17061
G1 X106.653 Y136.564 E28.18477
G0 F1620 X106.704 Y136.513
G0 X106.912 Y136.321
G0 F9000 X107.38 Y137.028
G1 F1800 X107.358 Y137.048 E28.18688
G1 X107.038 Y137.37 E28.21901
G1 X107.021 Y137.389 E28.22081
G1 X106.895 Y137.538 E28.23462
G1 X106.879 Y137.559 E28.23649
G1 X106.669 Y137.853 E28.26206
G1 X106.649 Y137.883 E28.26462
G1 X106.471 Y138.203 E28.29053
G1 X106.462 Y138.222 E28.29202
G1 X106.367 Y138.423 E28.30776
G1 X106.357 Y138.447 E28.3096
G1 X106.232 Y138.779 E28.33471
G1 X106.224 Y138.802 E28.33643
G1 X106.175 Y138.97 E28.34882
G1 X106.169 Y138.996 E28.3507
G1 X106.106 Y139.303 E28.37289
G1 X106.101 Y139.335 E28.37518
G1 X106.056 Y139.786 E28.40726
G1 X106.054 Y139.813 E28.40917
G1 X106.05 Y140.071 E28.42744
G1 X106.051 Y140.099 E28.42942
G1 X106.08 Y140.499 E28.4578
G1 X106.083 Y140.526 E28.45973
G1 X106.128 Y140.809 E28.48001
G1 X106.133 Y140.836 E28.48195
G1 X106.206 Y141.129 E28.50332
G1 X106.216 Y141.16 E28.50563
G1 X106.358 Y141.555 E28.53534
G1 X106.369 Y141.583 E28.53747
G1 X106.498 Y141.857 E28.5589
G1 X106.51 Y141.88 E28.56074
G1 X106.662 Y142.145 E28.58236
G1 X106.68 Y142.172 E28.58466
G1 X106.912 Y142.497 E28.61292
G1 X106.939 Y142.531 E28.61599
G1 X107.238 Y142.848 E28.64683
G1 X107.255 Y142.865 E28.64854
G1 X107.39 Y142.988 E28.66146
G1 X107.404 Y142.999 E28.66272
G1 X107.641 Y143.192 E28.68436
G1 X107.665 Y143.21 E28.68648
G1 X107.929 Y143.387 E28.70898
G1 X107.961 Y143.406 E28.71161
G1 X108.293 Y143.576 E28.73801
G1 X108.317 Y143.587 E28.73988
G1 X108.607 Y143.707 E28.76209
G1 X108.634 Y143.716 E28.76411
G1 X108.973 Y143.822 E28.78924
G1 X109.002 Y143.83 E28.79137
G1 X109.399 Y143.914 E28.82009
G1 X109.425 Y143.919 E28.82197
G1 X109.68 Y143.951 E28.84016
G1 X109.703 Y143.953 E28.84179
G1 X109.886 Y143.963 E28.85476
G1 X109.913 Y143.963 E28.85667
G1 X110.262 Y143.952 E28.88139
G1 X110.289 Y143.95 E28.8833
G1 X110.694 Y143.903 E28.91216
G1 X110.729 Y143.897 E28.91468
G1 X110.923 Y143.852 E28.92877
G1 X110.941 Y143.847 E28.93009
G1 X111.305 Y143.74 E28.95695
G1 X111.334 Y143.73 E28.95912
G1 X111.712 Y143.579 E28.98793
G1 X111.748 Y143.562 E28.99074
G1 X112.074 Y143.382 E29.0171
G1 X112.093 Y143.37 E29.01869
G1 X112.25 Y143.268 E29.03194
G1 X112.279 Y143.247 E29.03448
G1 X112.677 Y142.92 E29.07094
G1 X112.701 Y142.899 E29.07319
G1 X112.918 Y142.681 E29.09496
G1 X112.932 Y142.666 E29.09642
G1 X113.114 Y142.458 E29.11598
G1 X113.134 Y142.432 E29.1183
G1 X113.291 Y142.211 E29.13749
G1 X113.303 Y142.194 E29.13896
G1 X113.445 Y141.963 E29.15815
G1 X113.453 Y141.947 E29.15942
G1 X113.559 Y141.751 E29.17519
G1 X113.57 Y141.731 E29.1768
G1 X113.649 Y141.556 E29.19039
G1 X113.656 Y141.538 E29.19176
G1 X113.743 Y141.309 E29.2091
G1 X113.752 Y141.28 E29.21125
G1 X113.858 Y140.897 E29.23937
G1 X113.865 Y140.87 E29.24135
G1 X113.923 Y140.555 E29.26402
G1 X113.926 Y140.529 E29.26587
G1 X113.949 Y140.302 E29.28202
G1 X113.951 Y140.278 E29.28372
G1 X113.961 Y139.865 E29.31296
G1 X113.96 Y139.839 E29.3148
G1 X113.947 Y139.614 E29.33076
G1 X113.945 Y139.585 E29.33281
G1 X113.886 Y139.186 E29.36136
G1 X113.879 Y139.152 E29.36382
G1 X113.806 Y138.872 E29.3843
G1 X113.797 Y138.845 E29.38631
G1 X113.658 Y138.457 E29.41548
G1 X113.648 Y138.432 E29.41739
G1 X113.544 Y138.205 E29.43506
G1 X113.532 Y138.181 E29.43696
G1 X113.33 Y137.822 E29.46612
G1 X113.311 Y137.793 E29.46857
G1 X113.19 Y137.624 E29.48328
G1 X113.176 Y137.605 E29.48495
G1 X113.035 Y137.436 E29.50053
G1 X113.024 Y137.423 E29.50173
G1 X112.807 Y137.189 E29.52432
G1 X112.791 Y137.173 E29.52592
G1 X112.587 Y136.982 E29.5457
G1 X112.567 Y136.965 E29.54756
G1 X112.397 Y136.83 E29.56293
G1 X112.376 Y136.815 E29.56475
G1 X112.018 Y136.576 E29.59522
G1 X111.994 Y136.562 E29.59718
G1 X111.816 Y136.464 E29.61157
G1 X111.791 Y136.451 E29.61356
G1 X111.486 Y136.317 E29.63714
G1 X111.462 Y136.308 E29.63895
G1 X111.232 Y136.228 E29.65619
G1 X111.211 Y136.221 E29.65776
G1 X110.935 Y136.146 E29.678
G1 X110.919 Y136.142 E29.67917
G1 X110.718 Y136.098 E29.69373
G1 X110.7 Y136.095 E29.69502
G1 X110.429 Y136.052 E29.71444
G1 X110.397 Y136.048 E29.71672
G1 X110.107 Y136.032 E29.73728
G1 X110.084 Y136.032 E29.73891
G1 X109.788 Y136.037 E29.75986
G1 X109.767 Y136.038 E29.76135
G1 X109.533 Y136.057 E29.77797
G1 X109.499 Y136.062 E29.7804
G1 X109.088 Y136.14 E29.81001
G1 X109.061 Y136.146 E29.81196
G1 X108.783 Y136.225 E29.83242
G1 X108.759 Y136.233 E29.83421
G1 X108.546 Y136.312 E29.85029
G1 X108.524 Y136.321 E29.85197
G1 X108.208 Y136.465 E29.87655
G1 X108.193 Y136.472 E29.87772
G1 X108.022 Y136.561 E29.89137
G1 X107.999 Y136.574 E29.89324
G1 X107.799 Y136.7 E29.90997
G1 X107.782 Y136.712 E29.91144
G1 X107.657 Y136.803 E29.92238
G0 F1620 X107.615 Y136.833
G0 X107.598 Y136.846
G0 X107.38 Y137.028
G1 F1800 E28.92238
G1 F600 Z0.68
;MESH:CornerMounts_Revised.stl
G0 F9000 X109.976 Y147.5 Z0.68
;TYPE:WALL-INNER
G1 F600 Z0.28
G1 F720 E29.92238
G1 F1800 X109.661 Y147.492 E29.94373
G1 X109.029 Y147.437 E29.98671
G1 X108.349 Y147.317 E30.03349
G1 X108.037 Y147.238 E30.0553
G1 X107.471 Y147.061 E30.09548
G1 X106.837 Y146.802 E30.14188
G1 X106.259 Y146.502 E30.186
G1 X105.716 Y146.157 E30.22958
G1 X105.391 Y145.916 E30.257
G1 X104.958 Y145.554 E30.29523
G1 X104.701 Y145.31 E30.31924
G1 X104.47 Y145.069 E30.34186
G1 X104.082 Y144.608 E30.38268
G1 X103.828 Y144.261 E30.41182
G1 X103.498 Y143.741 E30.45355
G1 X103.21 Y143.188 E30.49579
G1 X103.05 Y142.819 E30.52304
G1 X102.832 Y142.207 E30.56705
G1 X102.684 Y141.651 E30.60603
G1 X102.565 Y140.988 E30.65167
G1 X102.508 Y140.362 E30.69426
G1 X102.5 Y139.979 E30.72021
G1 X102.508 Y139.661 E30.74176
G1 X102.56 Y139.056 E30.7829
G1 X102.669 Y138.409 E30.82736
G1 X102.757 Y138.055 E30.85207
G1 X102.947 Y137.447 E30.89523
G1 X103.197 Y136.838 E30.93983
G1 X103.502 Y136.252 E30.98459
G1 X103.837 Y135.724 E31.02695
G1 X104.066 Y135.413 E31.05312
G1 X104.479 Y134.922 E31.09659
G1 X104.684 Y134.707 E31.11671
G1 X104.944 Y134.459 E31.14106
G1 X105.411 Y134.067 E31.18237
G1 X105.696 Y133.857 E31.20635
G1 X106.208 Y133.528 E31.24758
G1 X106.799 Y133.216 E31.29286
G1 X107.181 Y133.05 E31.32108
G1 X107.717 Y132.855 E31.35972
G1 X108.359 Y132.682 E31.40477
G1 X109.028 Y132.563 E31.45081
G1 X109.689 Y132.506 E31.49576
G1 X109.989 Y132.499 E31.51609
G1 X110.386 Y132.511 E31.543
G1 X110.954 Y132.561 E31.58163
G1 X111.575 Y132.666 E31.6243
G1 X111.986 Y132.769 E31.65301
G1 X112.614 Y132.971 E31.6977
G1 X113.223 Y133.228 E31.74248
G1 X113.742 Y133.499 E31.78215
G1 X114.241 Y133.815 E31.82217
G1 X114.81 Y134.243 E31.87041
G1 X115.297 Y134.688 E31.9151
G1 X115.528 Y134.93 E31.93777
G1 X115.918 Y135.392 E31.97873
G1 X116.143 Y135.696 E32.00435
G1 X116.494 Y136.246 E32.04856
G1 X116.777 Y136.786 E32.08986
G1 X116.932 Y137.135 E32.11574
G1 X117.149 Y137.728 E32.15852
G1 X117.327 Y138.398 E32.20549
G1 X117.431 Y138.981 E32.24561
G1 X117.494 Y139.673 E32.29269
G1 X117.5 Y140.021 E32.31627
G1 X117.491 Y140.361 E32.33931
G1 X117.428 Y141.027 E32.38463
G1 X117.331 Y141.59 E32.42334
G1 X117.251 Y141.915 E32.44602
G1 X117.051 Y142.556 E32.49151
G1 X116.803 Y143.16 E32.53575
G1 X116.502 Y143.741 E32.58008
G1 X116.188 Y144.238 E32.61991
G1 X115.937 Y144.584 E32.64887
G1 X115.555 Y145.041 E32.68922
G1 X115.31 Y145.299 E32.71333
G1 X115.025 Y145.568 E32.73988
G1 X114.604 Y145.921 E32.7771
G1 X114.263 Y146.171 E32.80575
G1 X113.787 Y146.475 E32.84401
G1 X113.173 Y146.797 E32.89099
G1 X112.834 Y146.945 E32.91605
G1 X112.275 Y147.148 E32.95634
G1 X111.64 Y147.318 E33.00088
G1 X111.007 Y147.432 E33.04445
G1 X110.411 Y147.489 E33.08502
G1 X110.356 Y147.491 E33.08875
G0 F1620 X109.976 Y147.5
G0 F9000 X109.989 Y146.9
G1 F1800 X109.694 Y146.893 E33.10874
G1 X109.081 Y146.838 E33.15044
G1 X108.494 Y146.735 E33.19081
G1 X108.193 Y146.658 E33.21186
G1 X107.631 Y146.481 E33.25178
G1 X107.053 Y146.24 E33.29421
G1 X106.523 Y145.961 E33.33479
G1 X106.058 Y145.664 E33.37217
G1 X105.806 Y145.48 E33.39331
G1 X105.357 Y145.106 E33.4329
G1 X105.126 Y144.886 E33.45452
G1 X104.914 Y144.665 E33.47526
G1 X104.524 Y144.198 E33.51649
G1 X104.35 Y143.962 E33.53635
G1 X104.036 Y143.473 E33.57572
G1 X103.739 Y142.903 E33.61927
G1 X103.634 Y142.664 E33.63696
G1 X103.427 Y142.101 E33.6776
G1 X103.262 Y141.486 E33.72074
G1 X103.155 Y140.868 E33.76323
G1 X103.107 Y140.328 E33.79996
G1 X103.1 Y139.992 E33.82273
G1 X103.107 Y139.694 E33.84292
G1 X103.162 Y139.081 E33.88462
G1 X103.253 Y138.548 E33.92126
G1 X103.342 Y138.193 E33.94605
G1 X103.512 Y137.651 E33.98454
G1 X103.742 Y137.09 E34.02561
G1 X104.021 Y136.553 E34.06661
G1 X104.333 Y136.063 E34.10597
G1 X104.545 Y135.775 E34.1302
G1 X104.907 Y135.342 E34.16844
G1 X105.109 Y135.131 E34.18823
G1 X105.343 Y134.907 E34.21017
G1 X105.8 Y134.525 E34.25053
G1 X106.036 Y134.351 E34.27039
G1 X106.511 Y134.046 E34.30864
G1 X107.063 Y133.755 E34.35092
G1 X107.36 Y133.624 E34.37291
G1 X107.925 Y133.418 E34.41365
G1 X108.491 Y133.267 E34.45334
G1 X109.102 Y133.158 E34.49539
G1 X109.702 Y133.106 E34.53619
G1 X109.989 Y133.099 E34.55564
G1 X110.335 Y133.109 E34.57909
G1 X110.879 Y133.156 E34.61609
G1 X111.506 Y133.265 E34.65921
G1 X111.807 Y133.342 E34.68025
G1 X112.386 Y133.526 E34.72142
G1 X112.947 Y133.76 E34.7626
G1 X113.443 Y134.019 E34.80051
G1 X113.918 Y134.321 E34.83864
G1 X114.453 Y134.727 E34.88415
G1 X114.883 Y135.124 E34.9238
G1 X115.11 Y135.363 E34.94613
G1 X115.475 Y135.8 E34.9847
G1 X115.649 Y136.036 E35.00457
G1 X115.954 Y136.511 E35.04281
G1 X116.251 Y137.077 E35.08612
G1 X116.376 Y137.36 E35.10708
G1 X116.577 Y137.909 E35.14669
